X: 47
M:6/8
L:1/8
K:Glyd
vDBB DAA | DBB AGA | DBB DAA | GAG GED |
|:dBd ece | dBg dBG | dBd efg | GAG GED |
dBd ece | fdf gfe | dcB AGA | GAG GED :|
|:BDD ADD | BDD AGA | BDD ADD | GAG GED |


